X: 39791
T: That's Right Too!
R: reel
M: 4/4
K: Dmajor
|:D2FA FEED|d2ef edBA|D2FA FEED|BcdD FEEA|
D2FA FEED|d2ef eafd|BD (3DDD ~B2dB|1 AFEF DA,B,A,:|2 AFEF D3b||
|:afef d3B|ADFD EDDb|afef ~d3^d|efaA fgfe|
d2ef edBA|BedB ADFA|BD (3DDD ~B2dB|1 AFEF D3b:|2 AFEF DA,B,A,||

